package/converter/svg/thin/line-columns.svg

<svg xmlns="http://www.w3.org/2000/svg" viewBox="0 0 512 512"><!-- Font Awesome Pro 6.0.0-alpha2 by @fontawesome - https://fontawesome.com License - https://fontawesome.com/license (Commercial License) --><path d="M216 56H8C3.594 56 0 59.594 0 64S3.594 72 8 72H216C220.406 72 224 68.406 224 64S220.406 56 216 56ZM216 184H8C3.594 184 0 187.594 0 192S3.594 200 8 200H216C220.406 200 224 196.406 224 192S220.406 184 216 184ZM216 312H8C3.594 312 0 315.594 0 320S3.594 328 8 328H216C220.406 328 224 324.406 224 320S220.406 312 216 312ZM216 440H8C3.594 440 0 443.594 0 448S3.594 456 8 456H216C220.406 456 224 452.406 224 448S220.406 440 216 440ZM296 72H504C508.406 72 512 68.406 512 64S508.406 56 504 56H296C291.594 56 288 59.594 288 64S291.594 72 296 72ZM504 184H296C291.594 184 288 187.594 288 192S291.594 200 296 200H504C508.406 200 512 196.406 512 192S508.406 184 504 184ZM504 312H296C291.594 312 288 315.594 288 320S291.594 328 296 328H504C508.406 328 512 324.406 512 320S508.406 312 504 312ZM504 440H296C291.594 440 288 443.594 288 448S291.594 456 296 456H504C508.406 456 512 452.406 512 448S508.406 440 504 440Z"/></svg>

<svg xmlns="http://www.w3.org/2000/svg" viewBox="0 0 512 512"><!--! Font Awesome Pro 6.6.0 by @fontawesome - https://fontawesome.com License - https://fontawesome.com/license (Commercial License) Copyright 2024 Fonticons, Inc. --><path d="M8 56c-4.4 0-8 3.6-8 8s3.6 8 8 8l208 0c4.4 0 8-3.6 8-8s-3.6-8-8-8L8 56zM8 184c-4.4 0-8 3.6-8 8s3.6 8 8 8l208 0c4.4 0 8-3.6 8-8s-3.6-8-8-8L8 184zM0 320c0 4.4 3.6 8 8 8l208 0c4.4 0 8-3.6 8-8s-3.6-8-8-8L8 312c-4.4 0-8 3.6-8 8zM8 440c-4.4 0-8 3.6-8 8s3.6 8 8 8l208 0c4.4 0 8-3.6 8-8s-3.6-8-8-8L8 440zM288 192c0 4.4 3.6 8 8 8l208 0c4.4 0 8-3.6 8-8s-3.6-8-8-8l-208 0c-4.4 0-8 3.6-8 8zm8-136c-4.4 0-8 3.6-8 8s3.6 8 8 8l208 0c4.4 0 8-3.6 8-8s-3.6-8-8-8L296 56zm-8 264c0 4.4 3.6 8 8 8l208 0c4.4 0 8-3.6 8-8s-3.6-8-8-8l-208 0c-4.4 0-8 3.6-8 8zm8 120c-4.4 0-8 3.6-8 8s3.6 8 8 8l208 0c4.4 0 8-3.6 8-8s-3.6-8-8-8l-208 0z"/></svg>
